images/Info.svg

<svg xmlns="http://www.w3.org/2000/svg" width="16" height="16" fill="none"><path fill="#2D3440" fill-rule="evenodd" d="M8.00027 2.33333c-3.12976 0-5.66694 2.53718-5.66694 5.66694 0 3.12973 2.53718 5.66693 5.66694 5.66693 3.12973 0 5.66693-2.5372 5.66693-5.66693 0-3.12976-2.5372-5.66694-5.66693-5.66694ZM1 8.00027C1 4.13413 4.13413 1 8.00027 1c3.86613 0 7.00023 3.13413 7.00023 7.00027 0 3.86613-3.1341 7.00023-7.00023 7.00023C4.13413 15.0005 1 11.8664 1 8.00027Zm7.00006-.66695c.36819 0 .66666.29848.66666.66667v2.53341c0 .3682-.29847.6667-.66666.6667s-.66667-.2985-.66667-.6667V7.99999c0-.36819.29848-.66667.66667-.66667Zm0-2.53343c-.36819 0-.66667.29847-.66667.66666s.29848.66667.66667.66667h.00666c.36819 0 .66667-.29848.66667-.66667 0-.36819-.29848-.66666-.66667-.66666h-.00666Z" clip-rule="evenodd"/></svg>

<svg width="16" height="16" viewBox="0 0 16 16" fill="none" xmlns="http://www.w3.org/2000/svg">
<path fill-rule="evenodd" clip-rule="evenodd" d="M8.00027 2.33333C4.87051 2.33333 2.33333 4.87051 2.33333 8.00027C2.33333 11.13 4.87051 13.6672 8.00027 13.6672C11.13 13.6672 13.6672 11.13 13.6672 8.00027C13.6672 4.87051 11.13 2.33333 8.00027 2.33333ZM1 8.00027C1 4.13413 4.13413 1 8.00027 1C11.8664 1 15.0005 4.13413 15.0005 8.00027C15.0005 11.8664 11.8664 15.0005 8.00027 15.0005C4.13413 15.0005 1 11.8664 1 8.00027ZM8.00006 7.33332C8.36825 7.33332 8.66672 7.6318 8.66672 7.99999V10.5334C8.66672 10.9016 8.36825 11.2001 8.00006 11.2001C7.63187 11.2001 7.33339 10.9016 7.33339 10.5334V7.99999C7.33339 7.6318 7.63187 7.33332 8.00006 7.33332ZM8.00006 4.79989C7.63187 4.79989 7.33339 5.09836 7.33339 5.46655C7.33339 5.83474 7.63187 6.13322 8.00006 6.13322H8.00672C8.37491 6.13322 8.67339 5.83474 8.67339 5.46655C8.67339 5.09836 8.37491 4.79989 8.00672 4.79989H8.00006Z" fill="#2D3440"/>
</svg>
